app/src/main/assets/symbols/transport/parking_car_paid.svg

<?xml version="1.0" encoding="UTF-8" standalone="no"?>
<!-- Created with Inkscape (http://www.inkscape.org/) -->

<svg
   xmlns:dc="http://purl.org/dc/elements/1.1/"
   xmlns:cc="http://creativecommons.org/ns#"
   xmlns:rdf="http://www.w3.org/1999/02/22-rdf-syntax-ns#"
   xmlns:svg="http://www.w3.org/2000/svg"
   xmlns="http://www.w3.org/2000/svg"
   xmlns:xlink="http://www.w3.org/1999/xlink"
   xmlns:sodipodi="http://sodipodi.sourceforge.net/DTD/sodipodi-0.dtd"
   xmlns:inkscape="http://www.inkscape.org/namespaces/inkscape"
   version="1.0"
   width="580"
   height="580"
   id="svg2"
   sodipodi:version="0.32"
   inkscape:version="0.91 r13725"
   sodipodi:docname="parking_car_paid.svg"
   inkscape:output_extension="org.inkscape.output.svg.inkscape">
  <path
     sodipodi:nodetypes="cc"
     id="path4370"
     d="M 455.37677,43.427273 L 455.37677,308.471"
     style="fill:#0092da;fill-rule:evenodd;stroke:url(#radialGradient4208);stroke-width:30;stroke-linecap:round;stroke-linejoin:round;stroke-miterlimit:4;stroke-dasharray:none;stroke-opacity:1;fill-opacity:1" />
  <metadata
     id="metadata10">
    <rdf:RDF>
      <cc:Work
         rdf:about="">
        <dc:format>image/svg+xml</dc:format>
        <dc:type
           rdf:resource="http://purl.org/dc/dcmitype/StillImage" />
        <cc:license
           rdf:resource="http://web.resource.org/cc/PublicDomain" />
        <dc:language>en</dc:language>
      </cc:Work>
    </rdf:RDF>
  </metadata>
  <sodipodi:namedview
     inkscape:window-height="801"
     inkscape:window-width="1536"
     inkscape:pageshadow="2"
     inkscape:pageopacity="0.0"
     guidetolerance="10.0"
     gridtolerance="10.0"
     objecttolerance="10.0"
     borderopacity="1.0"
     bordercolor="#666666"
     pagecolor="#ffffff"
     id="base"
     showgrid="false"
     inkscape:zoom="0.35355339"
     inkscape:cx="-417.32949"
     inkscape:cy="187.35788"
     inkscape:window-x="-8"
     inkscape:window-y="32"
     inkscape:current-layer="svg2"
     inkscape:window-maximized="1" />
  <defs
     id="defs4">
    <linearGradient
       inkscape:collect="always"
       id="linearGradient4202">
      <stop
         style="stop-color:#ffffff;stop-opacity:1;"
         offset="0"
         id="stop4204" />
      <stop
         style="stop-color:#ffffff;stop-opacity:0;"
         offset="1"
         id="stop4206" />
    </linearGradient>
    <linearGradient
       inkscape:collect="always"
       id="linearGradient4194">
      <stop
         style="stop-color:#0092da;stop-opacity:1;"
         offset="0"
         id="stop4196" />
      <stop
         style="stop-color:#0092da;stop-opacity:0;"
         offset="1"
         id="stop4198" />
    </linearGradient>
    <linearGradient
       inkscape:collect="always"
       id="linearGradient4186">
      <stop
         style="stop-color:#0092da;stop-opacity:1;"
         offset="0"
         id="stop4188" />
      <stop
         style="stop-color:#0092da;stop-opacity:0;"
         offset="1"
         id="stop4190" />
    </linearGradient>
    <linearGradient
       inkscape:collect="always"
       id="linearGradient4166">
      <stop
         style="stop-color:#0092da;stop-opacity:1;"
         offset="0"
         id="stop4168" />
      <stop
         style="stop-color:#0092da;stop-opacity:0;"
         offset="1"
         id="stop4170" />
    </linearGradient>
    <inkscape:perspective
       sodipodi:type="inkscape:persp3d"
       inkscape:vp_x="0 : 290 : 1"
       inkscape:vp_y="0 : 1000 : 0"
       inkscape:vp_z="580 : 290 : 1"
       inkscape:persp3d-origin="290 : 193.33333 : 1"
       id="perspective12" />
    <style
       type="text/css"
       id="style6">
   
    .fil0 {fill:#EF7900}
   
  </style>
    <inkscape:perspective
       id="perspective6807"
       inkscape:persp3d-origin="29.116032 : 19.410688 : 1"
       inkscape:vp_z="58.232063 : 29.116032 : 1"
       inkscape:vp_y="0 : 1000 : 0"
       inkscape:vp_x="0 : 29.116032 : 1"
       sodipodi:type="inkscape:persp3d" />
    <inkscape:perspective
       id="perspective6954"
       inkscape:persp3d-origin="290 : 193.33333 : 1"
       inkscape:vp_z="580 : 290 : 1"
       inkscape:vp_y="0 : 1000 : 0"
       inkscape:vp_x="0 : 290 : 1"
       sodipodi:type="inkscape:persp3d" />
    <marker
       viewBox="0 0 10 10"
       refY="5"
       refX="10"
       orient="auto"
       markerWidth="4"
       markerUnits="strokeWidth"
       markerHeight="3"
       id="ArrowStart">
      <path
         id="path2295"
         d="M 10 0 L 0 5 L 10 10 z" />
    </marker>
    <marker
       viewBox="0 0 10 10"
       refY="5"
       refX="0"
       orient="auto"
       markerWidth="4"
       markerUnits="strokeWidth"
       markerHeight="3"
       id="ArrowEnd">
      <path
         id="path2292"
         d="M 0 0 L 10 5 L 0 10 z" />
    </marker>
    <inkscape:perspective
       id="perspective7597"
       inkscape:persp3d-origin="178.5405 : 158.483 : 1"
       inkscape:vp_z="357.08099 : 237.7245 : 1"
       inkscape:vp_y="0 : 1000 : 0"
       inkscape:vp_x="0 : 237.7245 : 1"
       sodipodi:type="inkscape:persp3d" />
    <radialGradient
       inkscape:collect="always"
       xlink:href="#linearGradient4166"
       id="radialGradient4172"
       cx="455.37118"
       cy="175.40213"
       fx="455.37118"
       fy="175.40213"
       r="83.075576"
       gradientTransform="matrix(1,0,0,1.5843469,0,-102.4957)"
       gradientUnits="userSpaceOnUse" />
    <radialGradient
       inkscape:collect="always"
       xlink:href="#linearGradient4186"
       id="radialGradient4192"
       cx="189.04215"
       cy="244.10351"
       fx="189.04215"
       fy="244.10351"
       r="141.16321"
       gradientTransform="matrix(1,0,0,1.3100983,0,-75.696087)"
       gradientUnits="userSpaceOnUse" />
    <radialGradient
       inkscape:collect="always"
       xlink:href="#linearGradient4194"
       id="radialGradient4200"
       cx="336.15994"
       cy="442.76926"
       fx="336.15994"
       fy="442.76926"
       r="135.83886"
       gradientTransform="matrix(1,0,0,0.83631186,0,72.476076)"
       gradientUnits="userSpaceOnUse" />
    <radialGradient
       inkscape:collect="always"
       xlink:href="#linearGradient4202"
       id="radialGradient4208"
       cx="455.37677"
       cy="175.94914"
       fx="455.37677"
       fy="175.94914"
       r="15.0015"
       gradientTransform="matrix(1,0,0,9.8480486,0,-1556.8065)"
       gradientUnits="userSpaceOnUse" />
  </defs>
  <path
     style="fill:#0092da;stroke:url(#radialGradient4200);fill-opacity:1"
     d="M 277.59007,329.16561 C 260.43549,329.16561 251.33536,338.53089 247.1342,349.49329 L 224.83319,407.07651 C 215.99266,408.2101 200.32109,418.58724 200.32109,438.24562 L 200.32109,511.47283 L 222.02773,511.47283 L 222.02773,534.89128 C 222.02773,563.70285 262.80196,563.36353 262.80197,534.89128 L 262.80197,511.47283 L 336.14806,511.47283 L 336.17187,511.47283 L 409.51792,511.47283 L 409.51792,534.89128 C 409.51792,563.36353 450.29197,563.70285 450.2922,534.89128 L 450.2922,511.47283 L 471.9988,511.47283 L 471.9988,438.24562 C 471.9988,418.58725 456.32734,408.2101 447.48666,407.07651 L 425.16192,349.49329 C 420.96077,338.53089 411.86073,329.16561 394.70602,329.16561 L 363.18035,329.16561 L 309.49616,329.16561 L 277.59007,329.16561 z M 277.32853,350.13522 L 336.10051,350.13522 L 336.14806,350.13522 L 336.17187,350.13522 L 394.96758,350.13522 C 402.3192,350.20368 405.46779,354.80121 407.56836,361.16684 L 424.3773,406.48213 L 336.17187,406.48213 L 336.14806,406.48213 L 336.10051,406.48213 L 247.91878,406.48213 L 264.72775,361.16684 C 266.82834,354.80121 269.97614,350.20368 277.32853,350.13522 z M 243.06867,428.52162 C 253.47112,428.52162 261.89852,437.20084 261.89852,447.92207 C 261.89851,458.64406 253.47112,467.3463 243.06867,467.3463 C 232.66698,467.3463 224.23881,458.64405 224.23881,447.92207 C 224.23881,437.20086 232.66698,428.52162 243.06867,428.52162 z M 429.25122,428.52162 C 439.65368,428.52162 448.08115,437.20086 448.08108,447.92207 C 448.08108,458.64405 439.65368,467.3463 429.25122,467.3463 C 418.84954,467.3463 410.39755,458.64406 410.39755,447.92207 C 410.39755,437.20084 418.84954,428.52162 429.25122,428.52162 z"
     id="path2301" />
  <g
     id="g2319"
     transform="translate(879.29125,36.805119)">
    <path
       id="path2323"
       style="fill:#ffffff;stroke:none"
       d="" />
  </g>
  <g
     id="g2325"
     transform="translate(879.29125,36.805119)">
    <path
       id="path2329"
       style="fill:#ffffff;stroke:none"
       d="" />
  </g>
  <path
     style="font-size:143.53205872px;font-style:normal;font-weight:normal;fill:#0092da;fill-opacity:1;stroke:url(#radialGradient4192);stroke-width:1px;stroke-linecap:butt;stroke-linejoin:miter;stroke-opacity:1;font-family:Bitstream Vera Sans"
     d="M 47.878933,429.0412 L 47.878933,59.165825 L 187.40218,59.165825 C 211.95941,59.166194 230.71388,60.343605 243.66563,62.698059 C 261.83115,65.726051 277.05338,71.486951 289.33237,79.980776 C 301.61079,88.475298 311.49263,100.37555 318.9779,115.68157 C 326.46256,130.98822 330.20504,147.80836 330.20536,166.14206 C 330.20504,197.59599 320.19705,224.21387 300.18137,245.99578 C 280.16511,267.77805 244.00179,278.6691 191.69132,278.66895 L 96.825606,278.66895 L 96.825606,429.0412 L 47.878933,429.0412 z M 96.825606,235.02062 L 192.44823,235.02062 C 224.06992,235.02082 246.52481,229.13377 259.81298,217.35945 C 273.10064,205.58556 279.7446,189.01772 279.74487,167.65587 C 279.7446,152.1816 275.83392,138.93574 268.01281,127.91824 C 260.19118,116.90134 249.88884,109.62663 237.10576,106.09408 C 228.86366,103.90778 213.64143,102.81447 191.43902,102.81415 L 96.825606,102.81415 L 96.825606,235.02062 z"
     id="text2419" />
  <g
     id="g4998"
     style="fill:#0092da;fill-opacity:1;stroke:url(#radialGradient4172)">
    <g
       id="g4372"
       style="fill:#0092da;fill-opacity:1;stroke:url(#radialGradient4172)">
      <path
         transform="scale(1.0867055,0.9202125)"
         style="font-size:323.14517212px;font-style:normal;font-variant:normal;font-weight:normal;font-stretch:normal;text-align:start;line-height:125%;writing-mode:lr-tb;text-anchor:start;fill:#0092da;fill-opacity:1;stroke:url(#radialGradient4172);stroke-width:1px;stroke-linecap:butt;stroke-linejoin:miter;stroke-opacity:1;font-family:Arial Unicode MS;-inkscape-font-specification:Arial Unicode MS"
         d="M 428.26872,167.17928 C 428.479,167.2846 429.26793,167.49498 430.63551,167.81042 C 452.19943,172.01817 468.39875,179.69707 479.23351,190.84714 C 490.06797,201.99743 495.48528,216.61889 495.48544,234.71157 C 495.48528,253.22514 489.54202,269.26668 477.65565,282.83622 C 465.76899,296.40579 449.3067,303.76912 428.26872,304.92622 L 428.26872,333.64322 L 411.38565,333.64322 L 411.38565,305.24179 C 389.92673,302.82241 373.46443,295.85354 361.99871,284.33518 C 350.53293,272.81685 344.06372,256.69643 342.59107,235.97386 L 370.9925,230.92471 C 373.20146,246.49296 377.67205,258.48466 384.40429,266.89986 C 391.13642,275.31512 400.1302,280.10129 411.38565,281.25836 L 411.38565,190.84714 C 390.03192,186.21887 374.04298,178.48738 363.41879,167.65264 C 352.79452,156.81816 347.48241,142.88043 347.48243,125.83942 C 347.48241,108.90394 352.74193,94.361371 363.261,82.211664 C 373.78001,70.062393 389.82154,63.040935 411.38565,61.147269 L 411.38565,47.577696 L 428.26872,47.577696 L 428.26872,61.147269 C 446.15099,62.935745 460.2465,68.616025 470.5553,78.188128 C 480.86381,87.760674 487.33302,101.17245 489.96294,118.42349 L 460.45701,122.6837 C 458.77383,111.95446 455.24996,103.46034 449.88537,97.201308 C 444.52054,90.942683 437.315,86.919151 428.26872,85.1307 L 428.26872,167.17928 z M 411.38565,163.70799 L 411.38565,84.815128 C 399.91981,86.813961 391.13642,91.41604 385.03543,98.621379 C 378.93433,105.82712 375.88381,114.16346 375.88386,123.63042 C 375.88381,134.4652 379.03952,143.01192 385.351,149.2706 C 391.66237,155.52958 400.34058,160.34204 411.38565,163.70799 L 411.38565,163.70799 z M 428.26872,281.25836 C 439.31361,279.57533 448.41258,274.76287 455.56565,266.82097 C 462.71847,258.87913 466.29494,248.85974 466.29508,236.76278 C 466.29494,226.13862 463.58629,217.5919 458.16912,211.1226 C 452.75168,204.65348 442.78489,199.15729 428.26872,194.634 L 428.26872,281.25836 z"
         id="text2413" />
    </g>
  </g>
</svg>

<?xml version="1.0" encoding="UTF-8"?>
<svg id="x" width="580" height="580" version="1.0" xmlns="http://www.w3.org/2000/svg" xmlns:cc="http://creativecommons.org/ns#" xmlns:dc="http://purl.org/dc/elements/1.1/" xmlns:rdf="http://www.w3.org/1999/02/22-rdf-syntax-ns#" xmlns:xlink="http://www.w3.org/1999/xlink">
<path id="j" d="m455.38 43.427v265.04" fill="#0092da" fill-rule="evenodd" stroke="url(#b)" stroke-linecap="round" stroke-linejoin="round" stroke-width="30"/>
<metadata id="g">
<rdf:RDF>
<cc:Work rdf:about="">
<dc:format>image/svg+xml</dc:format>
<dc:type rdf:resource="http://purl.org/dc/dcmitype/StillImage"/>
<cc:license rdf:resource="http://web.resource.org/cc/PublicDomain"/>
<dc:language>en</dc:language>
</cc:Work>
</rdf:RDF>
</metadata>
<defs id="i">
<style id="l" type="text/css">.fil0 {fill:#EF7900}</style>
<radialGradient id="a" cx="455.37" cy="175.4" r="83.076" gradientTransform="matrix(1 0 0 1.5843 0 -102.5)" gradientUnits="userSpaceOnUse">
<stop id="s" stop-color="#0092da" offset="0"/>
<stop id="o" stop-color="#0092da" stop-opacity="0" offset="1"/>
</radialGradient>
<radialGradient id="d" cx="189.04" cy="244.1" r="141.16" gradientTransform="matrix(1 0 0 1.3101 0 -75.696)" gradientUnits="userSpaceOnUse">
<stop id="e" stop-color="#0092da" offset="0"/>
<stop id="h" stop-color="#0092da" stop-opacity="0" offset="1"/>
</radialGradient>
<radialGradient id="c" cx="336.16" cy="442.77" r="135.84" gradientTransform="matrix(1 0 0 .83631 0 72.476)" gradientUnits="userSpaceOnUse">
<stop id="f" stop-color="#0092da" offset="0"/>
<stop id="n" stop-color="#0092da" stop-opacity="0" offset="1"/>
</radialGradient>
<radialGradient id="b" cx="455.38" cy="175.95" r="15.002" gradientTransform="matrix(1 0 0 9.848 0 -1556.8)" gradientUnits="userSpaceOnUse">
<stop id="m" stop-color="#fff" offset="0"/>
<stop id="u" stop-color="#fff" stop-opacity="0" offset="1"/>
</radialGradient>
</defs>
<path id="r" d="m277.59 329.17c-17.155 0-26.255 9.3653-30.456 20.328l-22.301 57.583c-8.8405 1.1336-24.512 11.511-24.512 31.169v73.227h21.707v23.418c0 28.812 40.774 28.472 40.774 0v-23.418h73.346 0.02381 73.346v23.418c0 28.472 40.774 28.812 40.774 0v-23.418h21.707v-73.227c0-19.658-15.671-30.036-24.512-31.169l-22.325-57.583c-4.2012-10.962-13.301-20.328-30.456-20.328h-31.526-53.684-31.906zm-0.26154 20.97h58.772 0.04755 0.02381 58.796c7.3516 0.06846 10.5 4.666 12.601 11.032l16.809 45.315h-88.205-0.02381-0.04755-88.182l16.809-45.315c2.1006-6.3656 5.2484-10.963 12.601-11.032zm-34.26 78.386c10.402 0 18.83 8.6792 18.83 19.4-1e-5 10.722-8.4274 19.424-18.83 19.424-10.402 0-18.83-8.7022-18.83-19.424 0-10.721 8.4282-19.4 18.83-19.4zm186.18 0c10.402 0 18.83 8.6792 18.83 19.4 0 10.722-8.4274 19.424-18.83 19.424-10.402 0-18.854-8.7022-18.854-19.424 0-10.721 8.452-19.4 18.854-19.4z" fill="#0092da" stroke="url(#c)"/>
<g id="w" transform="translate(879.29 36.805)"></g>
<g id="v" transform="translate(879.29 36.805)"></g>
<path id="t" d="m47.879 429.04v-369.88h139.52c24.557 3.69e-4 43.312 1.1778 56.263 3.5322 18.166 3.028 33.388 8.7889 45.667 17.283 12.278 8.4945 22.16 20.395 29.646 35.701 7.4847 15.307 11.227 32.127 11.227 50.46-3.2e-4 31.454-10.008 58.072-30.024 79.854-20.016 21.782-56.18 32.673-108.49 32.673h-94.866v150.37h-48.947zm48.947-194.02h95.623c31.622 2e-4 54.077-5.8868 67.365-17.661 13.288-11.774 19.932-28.342 19.932-49.704-2.7e-4 -15.474-3.911-28.72-11.732-39.738-7.8216-11.017-18.124-18.292-30.907-21.824-8.2421-2.1863-23.464-3.2796-45.667-3.2799h-94.613v132.21z" fill="#0092da" stroke="url(#d)" stroke-width="1px"/>
<g id="k" fill="#0092da" stroke="url(#a)">
<g id="q" fill="#0092da" stroke="url(#a)">
<path id="p" transform="scale(1.0867 .92021)" d="m428.27 167.18c0.21028 0.10532 0.99921 0.3157 2.3668 0.63114 21.564 4.2078 37.763 11.887 48.598 23.037 10.834 11.15 16.252 25.772 16.252 43.864-1.6e-4 18.514-5.9434 34.555-17.83 48.125-11.887 13.57-28.349 20.933-49.387 22.09v28.717h-16.883v-28.401c-21.459-2.4194-37.921-9.3882-49.387-20.907-11.466-11.518-17.935-27.639-19.408-48.361l28.401-5.0492c2.209 15.568 6.6796 27.56 13.412 35.975 6.7321 8.4153 15.726 13.201 26.981 14.358v-90.411c-21.354-4.6283-37.343-12.36-47.967-23.194-10.624-10.834-15.936-24.772-15.936-41.813-2e-5 -16.935 5.2595-31.478 15.779-43.628 10.519-12.149 26.561-19.171 48.125-21.064v-13.57h16.883v13.57c17.882 1.7885 31.978 7.4688 42.287 17.041 10.309 9.5725 16.778 22.984 19.408 40.235l-29.506 4.2602c-1.6832-10.729-5.207-19.223-10.572-25.482-5.3648-6.2586-12.57-10.282-21.617-12.071v82.049zm-16.883-3.4713v-78.893c-11.466 1.9988-20.249 6.6009-26.35 13.806-6.1011 7.2057-9.1516 15.542-9.1516 25.009-5e-5 10.835 3.1557 19.382 9.4671 25.64 6.3114 6.259 14.99 11.071 26.035 14.437zm16.883 117.55c11.045-1.683 20.144-6.4955 27.297-14.437 7.1528-7.9418 10.729-17.961 10.729-30.058-1.4e-4 -10.624-2.7088-19.171-8.126-25.64-5.4174-6.4691-15.384-11.965-29.9-16.489v86.624z" fill="#0092da" stroke="url(#a)" stroke-width="1px"/>
</g>
</g>
</svg>
